X: 1629
T: Joe Yates Waltz
B: australian traditional tunes wiki
M:3/4
L:1/8
R: Waltz
Q: 1/4=100
K:C
V:1 
|:"C" E6 | "F"F2 G3 F | "C"E4 D2 | C4 E2 | G3 G G2 | "F" A2 G2 ^F2 |"C" G6- | G4 z2 |
"C" c6 | "G7"B4 B2 |"F" A2 G2 E2 |"C"  C6 | C3 D E2 | G3 G G2 |"Dm" A2 G3 E |  "G7" D2 E2 F2 |
"C" E6 | "F"F2 G3 F | "C" E4 D2 | C4 E2 | G3 G G2 | A2 G2 ^F2 |"C" G6- | G2 c2 d2 |
"C" e6 |"G" d4 cd |"Am" c4 A2 |"Em" G4 G2 |"D" A2 B2 c2 |"G7" d2 c2 B2 |1 "C" c4 z2:|2"C" c4 G2 ||
|:  "C" E2 G2 G2 |"Dm" A4 G2 |"F" F2 A2 A2 |"G7" B4 A2 | G2 B2 d2 |"Dm" f4 e2 |"C" e2 d2 c2 |  "G7" A2 G2 F2 |
"C" E2 G2 G2 |"Dm" A4 G2 |"F" F2 G2 A2 |"G7" B4 A2 | G2 B2 d2 |"Em" g3 g g2 |  "G7" f2 e2 d2 |"C" c6:|
% abcbook-tune_id 6342d53a13ff38cea315f25a


% abcbook-boost 0
% abcbook-tablature 
% abcbook-transpose 
% abcbook-lastupdated 1665324374959
% abcbook-soundfonts 
% abcbook-repeats 1
% NFF Book 2017
% Bush Traditions recording played by Tony Stuart

